X: 5
T: BARNDANCE: Hills of Tara
T: If There Weren't Any Men in the World
C: C: Trad.; S: Various
C: Set Leaders: Mars, Tania
Z: Mars Agliullin ed.; Joseph Chordmichael at The Session
N: https://thesession.org/members/26966/sets/94259
R: Barndance
M: 4/4
L: 1/8
Q: 1/2=86
K: Gmaj
|:Bc|d2 G2 GB AB|c2 E2 E2 AG|FG AB cB cd|e2 d2 B2 Bc|
d2 G2 GB AB|c2 E2 A2 AG|FG AB cA DF|A2 G2 FG:||
|:Bd|g2 g2 f2 f2|ef ec A2 AG|FG AB cB cd|e2 d2 B2 Bd|
g2 g2 f2 f2|e2 ec A2 AG|FG AB cA DF|A2 G2 G2:||

